X:1
T:Keine Rose, keine Nelke
T:Satz: Friedrich Silcher
T:Keine Rose, keine Nelke
T:CPDL - Creative Commons Attribution Non Commercial 3.0
C:Friedrich Silcher
Z:CPDL - Creative Commons Attribution Non Commercial 3.0
%%score [ ( 1 2 ) ( 3 4 ) ]
L:1/8
Q:1/4=80
M:3/4
K:Bb
V:1 treble-8 nm="Tenor"
V:2 treble-8 
V:3 bass nm="Bass"
V:4 bass 
V:1
"^Innig" (F>F) | B2 B2 (c>c) | d2 d2 f2 | gf ed cB |{d} c4 f2 | ge ee eg | gf f2 f>e | d2 d2 c2 | %8
w: 1.~Kei- ne|Ro- se, kei- ne|Nel- ke kann|blü- * hen * so *|schön, als|wenn * zwei ver- lieb- te|Her- * zen bei ein-|an- der tun|
w: 2.~Kei- ne|Koh- le, kein _|Feu- er kann|bren- * nen * so *|heiß, als|heim- * li- che, stil- le|Lie- * be, von der|nie- mand nichts|
w: 3.~Setz' _|du mir ei- nen|Spie- gel in's|Her- * ze * hin- *|ein, dass|du * kannst da- rin- nen|se- * hen, wie so|treu ich es|
 (B3 d ce | d3 f eg | f2 b) z f>e | d2 d2 c2 | B4 |] %13
w: stehn, _ _ _|_ _ _ _|* * bei ein-|an- der tun|stehn.|
w: weiß, _ _ _|_ _ _ _|* * von der|nie- mand nichts|weiß.|
w: mein, _ _ _|_ _ _ _|* * wie so|treu ich es|mein.|
V:2
 (F>F) | F2 F2 (AA) | B2 B2 c2 | B2 B2 F2 |{B} A4 B2 | B2 BB Be | ed d2 B>c | B2 B2 A2 | (B4 Ac | %9
 B3 d ce | d3) x B>c | B2 B2 A2 | F4 |] %13
V:3
 (F,>F,) | F,2 D,2 (F,>F,) | F,2 F,2 A,2 | B,2 F,2 F,2 | F,4 F,2 | E,G, G,G, G,B, | B,2 B,2 B,>G, | %7
 F,2 F,2 F,2 | D,2 z2 z2 | z6 | z2 z2 B,>G, | F,2 F,2 E,2 | D,4 |] %13
V:4
 (F,>F,) | D,2 B,,2 (F,>F,) | D,2 B,,2 E,2 | D,2 B,,2 D,2 | F,4 D,2 | E,2 E,E, E,E, | %6
 B,,2 B,,2 D,>E, | F,2 F,2 F,,2 | B,,2 x2 x2 | x6 | x2 x2 D,>E, | F,2 F,2 F,,2 | B,,4 |] %13

